dhis-2/dhis-support/dhis-support-system/src/main/resources/SVGs/spraying_negative.svg

<?xml version="1.0" encoding="UTF-8" standalone="no"?>
<!-- Created with Inkscape (http://www.inkscape.org/) -->
<svg id="svg8" xmlns:rdf="http://www.w3.org/1999/02/22-rdf-syntax-ns#" xmlns="http://www.w3.org/2000/svg" xmlns:osb="http://www.openswatchbook.org/uri/2009/osb" height="48" width="48" version="1.1" xmlns:cc="http://creativecommons.org/ns#" viewBox="0 0 12.7 12.7" xmlns:dc="http://purl.org/dc/elements/1.1/">
 <title id="title4753">UIO-icon</title>
 <metadata id="metadata5">
  <rdf:RDF>
   <cc:Work rdf:about="">
    <dc:format>image/svg+xml</dc:format>
    <dc:type rdf:resource="http://purl.org/dc/dcmitype/StillImage"/>
    <dc:title>UIO-icon</dc:title>
    <dc:creator>
     <cc:Agent>
      <dc:title>Joaquín Urbano</dc:title>
     </cc:Agent>
    </dc:creator>
    <dc:rights>
     <cc:Agent>
      <dc:title>GPL</dc:title>
     </cc:Agent>
    </dc:rights>
   </cc:Work>
  </rdf:RDF>
 </metadata>
 <g id="layer1" transform="translate(0,-284.3)">
  <path id="rect1913" d="m0 0v48h48v-48h-48zm18.254 4.9277c2.391 0.0006 4.329 1.9389 4.33 4.3301-0.001 0.086-0.004 0.172-0.01 0.2578h4.852l0.004 0.5134h-4.916-0.524-7.47-0.526-0.068l-0.004-0.5134h0.014c-0.008-0.0858-0.012-0.1717-0.014-0.2578 0-2.392 1.94-4.3306 4.332-4.3301zm7.441 5.9413v0.002h0.004v0.113c0.004 0.065 0.006 0.131 0.008 0.196-0.001 0.055-0.003 0.11-0.006 0.166v0.039h-0.002c-0.112 4.076-3.424 7.337-7.502 7.385v0.001h-0.047c-0.012 0.001-0.024 0.002-0.037 0.002-0.012 0-0.024-0.001-0.037-0.002l-0.392 0.002v-3.826c-1.965-0.081-3.566-1.604-3.745-3.562h-0.013l-0.002-0.324c-0.001-0.01-0.002-0.02-0.002-0.03 0-0.009 0.001-0.018 0.002-0.027l-0.002-0.133h0.006 0.517 3.524l7.726-0.002zm-7.498 0.516v6.879c4.297-0.342 6.866-3.648 6.994-6.879h-6.994zm-10.31 7.418c0.3183 0 0.6031 0.195 0.7188 0.492h0.2715c0.136 0 0.2441 0.11 0.2441 0.246v0.07c0 0.137-0.1081 0.246-0.2441 0.246h-0.2715c-0.1155 0.297-0.401 0.49-0.7188 0.491-0.318 0-0.6032-0.194-0.7187-0.491h-0.2715c-0.1361 0-0.2461-0.109-0.2461-0.246v-0.07c0-0.136 0.11-0.246 0.2461-0.246h0.2715c0.1154-0.296 0.4009-0.492 0.7187-0.492zm9.1233 0.388h0.002c2.576 0.001 4.662 2.076 4.65 4.653l-0.016 5.631c0 0.075-0.003 0.153-0.003 0.228l3.414 2.221c0.423 0.276 0.741 0.648 0.961 1.064l0.14-0.088 12.574-7.838 0.297 0.454 2.061-1.28 0.271 0.438-2.05 1.271 0.265 0.407-0.015 0.009v0.002l-12.575 7.84-0.144 0.09-0.543 0.344c-0.019 0.158-0.04 0.32-0.074 0.513-0.077 0.249-0.185 0.492-0.334 0.721-0.571 0.877-1.537 1.335-2.508 1.295-0.765 3.325-4.232 5.729-8.272 5.736-4.306-0.001-7.9219-2.718-8.3903-6.306-1.5825-0.493-2.7246-1.966-2.7246-3.715v-8.416c0-2.156 1.735-3.891 3.8906-3.891 2.1553 0 3.8903 1.735 3.8903 3.891v8.416c0 2.142-1.713 3.866-3.8493 3.889 0.5731 2.844 3.6153 4.936 7.1833 4.937 3.511-0.007 6.515-2.036 7.145-4.826-0.107-0.052-0.211-0.11-0.313-0.176l-0.523-0.34c-0.011 0.52-0.023 1.025-0.027 1.637-0.019 0.234-0.227 0.684-0.555 0.941-0.69 1.033-4.602 3.414-8.553 1.842-0.181-0.074-0.364-0.144-0.537-0.232 0.615-2.496 0.077-0.31 0.611-2.5v-2.449-11.762c0-2.577 2.074-4.65 4.651-4.651zm0.031 1.786c-1.559 0-2.871 1.064-2.871 2.623v5.029c0.06 1.409 0.265 2.387 1.168 3.109l0.271 0.172c1.713 1.16 3.442 2.296 5.178 3.422l0.27 0.172 1.478 0.947c0.96 0.619 2.415-0.098 2.971-0.935 0.313-0.407 0.741-2.201-0.584-3.063l-0.27-0.172c-0.09-0.072-2.912-1.904-3.011-1.969l-0.27-0.171-1.465-0.897-0.008-0.764-0.027-4.58c-0.014-2.27-1.271-2.923-2.83-2.923zm-9.3183 0.105c-1.3783 0.035-2.7417 0.927-3.2188 3.137v9.26c1.5574 4.771 6.4241 2.337 6.7501 0v-9.26c0.037-1.81-1.7593-3.182-3.5313-3.137zm30.855 4.682l-12.121 7.556-0.023 0.014c-0.074 0.048-0.118 0.129-0.118 0.217 0 0.142 0.116 0.258 0.258 0.258 0.049 0 0.096-0.014 0.137-0.039l0.002-0.002 12.146-7.573-0.281-0.431zm-30.656 0.103c1.3289-0.053 2.6501 0.919 2.1441 3.092 0.454 0.4-0.112 1.159-1.1226 0.744-0.0714 0-0.0833 0.035-0.0821 0.25 0.001 0.174 0.0055 0.213 0.043 0.318 0.0819 0.232 0.116 0.52 0.0723 0.616-0.0351 0.077-0.1636 0.113-0.2539 0.072-0.1395-0.109-0.0538-0.214-0.0899-0.357-0.0692 0.017-0.1396 0.033-0.209 0.05-0.0709 0.091-0.0522 0.215-0.082 0.336-0.0764 0.091-0.2439 0.077-0.2969-0.025-0.0373-0.088-0.0163-0.161-0.0254-0.254h-0.2675c0.0146 0.243-0.0009 0.271-0.1172 0.33-0.0878 0.025-0.1728-0.002-0.2129-0.068-0.052-0.118-0.0186-0.186-0.0313-0.317-0.0793-0.028-0.1607-0.059-0.2011-0.049-0.0269 0.16-0.0496 0.196-0.0625 0.247-0.0409 0.036-0.0653 0.044-0.127 0.044-0.0924 0-0.1504-0.039-0.1719-0.117-0.0269-0.097 0.0049-0.347 0.0625-0.488 0.0462-0.113 0.0508-0.142 0.0567-0.322 0.0069-0.213-0.005-0.266-0.0606-0.266-1.1004 0.35-1.567-0.392-1.1523-0.781-0.478-1.925 0.8585-3.002 2.1875-3.055zm-1.3672 2.17c-0.1723 0-0.3663 0.221-0.4141 0.471-0.0303 0.158-0.0283 0.323 0.0039 0.418 0.0927 0.272 0.5708 0.428 1.1309 0.369 0.4439-0.31 0.1034-0.601 0.0078-0.774-0.1898-0.19-0.3309-0.317-0.4023-0.363-0.1121-0.071-0.2457-0.121-0.3262-0.121zm2.6562 0.008c-0.1932 0.025-0.3367 0.13-0.7734 0.566-0.3808 0.408 0.1637 0.719 0.5566 0.684 0.2589-0.032 0.4464-0.105 0.5743-0.223 0.0559-0.051 0.0768-0.086 0.1035-0.174 0.0303-0.1 0.0309-0.123 0.0156-0.277-0.0149-0.149-0.0239-0.183-0.0859-0.309-0.0384-0.077-0.0905-0.16-0.1153-0.183-0.0643-0.06-0.1847-0.096-0.2754-0.084zm13.035 12.121l1.51 3.83h-12.785l0.347-1.541c1.215 0.544 2.57 0.832 3.948 0.836 2.8-0.007 5.416-1.178 6.98-3.125z" fill-rule="evenodd" transform="matrix(.26458 0 0 .26458 0 284.3)" fill="#333"/>
 </g>
</svg>

<svg width="48" height="48" viewBox="0 0 48 48" fill="none" xmlns="http://www.w3.org/2000/svg">
<path fill-rule="evenodd" clip-rule="evenodd" d="M0 0V48H48V0H0ZM18.25 4.93C18.8403 4.9303 19.4244 5.05131 19.9662 5.28559C20.5081 5.51988 20.9963 5.86249 21.4009 6.29237C21.8055 6.72225 22.1179 7.23033 22.319 7.78538C22.52 8.34043 22.6054 8.93073 22.57 9.52H27.43V10.02H13.93V9.52V9.26C13.93 6.86 15.86 4.93 18.25 4.93ZM25.69 10.87V10.98L25.71 11.18V11.38H25.7C25.6459 13.3418 24.835 15.2067 23.437 16.5842C22.0391 17.9617 20.1624 18.7449 18.2 18.77H18.11H17.68V14.95C16.7296 14.91 15.8261 14.5258 15.138 13.869C14.4499 13.2122 14.0241 12.3275 13.94 11.38H13.93V11.06V11.03V10.87H25.69ZM18.19 11.38V18.26C19.9995 18.1773 21.7148 17.4294 23.0067 16.1596C24.2985 14.8899 25.0761 13.1878 25.19 11.38H18.19ZM7.9 18.8C8.22 18.8 8.5 19 8.62 19.3H8.89C9.02 19.3 9.13 19.4 9.13 19.54V19.61C9.13 19.75 9.03 19.86 8.89 19.86H8.6C8.5446 20.0061 8.44606 20.1319 8.31745 20.2207C8.18885 20.3095 8.03627 20.3571 7.88 20.3571C7.72373 20.3571 7.57115 20.3095 7.44255 20.2207C7.31394 20.1319 7.2154 20.0061 7.16 19.86H6.9C6.8337 19.86 6.77011 19.8337 6.72322 19.7868C6.67634 19.7399 6.65 19.6763 6.65 19.61V19.54C6.65 19.4 6.76 19.29 6.9 19.29H7.17C7.28 18.99 7.57 18.8 7.89 18.8H7.9ZM17.02 19.2C17.6305 19.1974 18.2356 19.3155 18.8003 19.5476C19.365 19.7798 19.8782 20.1213 20.3104 20.5525C20.7426 20.9838 21.0852 21.4963 21.3185 22.0605C21.5519 22.6247 21.6713 23.2295 21.67 23.84L21.66 29.47V29.7L25.06 31.92C25.49 32.2 25.81 32.57 26.03 32.99L26.17 32.9L38.74 25.06L39.04 25.52L41.1 24.24L41.37 24.67L39.32 25.94L39.59 26.35L39.57 26.36L27 34.2L26.85 34.3L26.31 34.64L26.24 35.15C26.0568 35.7535 25.6787 36.2792 25.1647 36.6447C24.6508 37.0102 24.0302 37.195 23.4 37.17C22.63 40.49 19.16 42.89 15.12 42.9C10.82 42.9 7.2 40.18 6.73 36.6C5.93671 36.3538 5.24335 35.8596 4.75192 35.1899C4.2605 34.5203 3.99693 33.7106 4 32.88V24.46C4 23.4283 4.40984 22.4389 5.13935 21.7094C5.86887 20.9798 6.85831 20.57 7.89 20.57C8.92169 20.57 9.91113 20.9798 10.6406 21.7094C11.3702 22.4389 11.78 23.4283 11.78 24.46V32.88C11.7827 33.9056 11.3792 34.8905 10.6577 35.6195C9.93628 36.3484 8.95557 36.7621 7.93 36.77C8.5 39.61 11.54 41.71 15.11 41.71C18.62 41.7 21.63 39.67 22.26 36.88C22.15 36.83 22.05 36.77 21.94 36.7L21.42 36.36L21.39 38C21.37 38.24 21.17 38.69 20.84 38.94C20.14 39.98 16.24 42.36 12.29 40.78C12.1 40.71 11.92 40.64 11.75 40.55L12.35 38.05V23.84C12.3487 23.2281 12.4684 22.6221 12.7022 22.0566C12.9361 21.4912 13.2794 20.9776 13.7125 20.5455C14.1457 20.1133 14.66 19.771 15.2259 19.5384C15.7918 19.3058 16.3981 19.1874 17.01 19.19L17.02 19.2ZM17.05 20.98C15.49 20.98 14.18 22.04 14.18 23.6V28.63C14.24 30.03 14.45 31.02 15.35 31.73L15.62 31.91C17.33 33.07 19.06 34.21 20.8 35.33L21.07 35.5L22.55 36.45C23.51 37.07 24.96 36.35 25.52 35.52C25.82 35.11 26.26 33.32 24.93 32.45L24.66 32.28L21.66 30.31L21.38 30.14L19.92 29.24L19.91 28.48L19.88 23.9C19.87 21.63 18.61 20.98 17.05 20.98ZM7.73 21.08C6.35 21.12 4.99 22.01 4.51 24.22V33.48C6.07 38.25 10.94 35.82 11.26 33.48V24.22C11.3 22.41 9.5 21.04 7.73 21.08ZM38.59 25.76L26.47 33.32L26.44 33.33C26.3922 33.3601 26.3555 33.405 26.3355 33.4578C26.3154 33.5106 26.3131 33.5686 26.329 33.6228C26.3448 33.677 26.3778 33.7247 26.4231 33.7584C26.4684 33.7922 26.5235 33.8103 26.58 33.81C26.63 33.81 26.68 33.79 26.72 33.77L38.87 26.19L38.59 25.76ZM7.93 25.86C9.26 25.81 10.58 26.79 10.08 28.96C10.53 29.36 9.96 30.12 8.95 29.7C8.88 29.7 8.87 29.74 8.87 29.95C8.87 30.13 8.87 30.17 8.91 30.27C9 30.5 9.03 30.79 8.99 30.89C8.95 30.96 8.82 31 8.73 30.96C8.59 30.85 8.68 30.74 8.64 30.6L8.44 30.65C8.36 30.75 8.38 30.87 8.35 30.99C8.28 31.08 8.11 31.06 8.05 30.96C8.02 30.87 8.04 30.8 8.03 30.71H7.76C7.78 30.95 7.76 30.98 7.64 31.04C7.56 31.06 7.47 31.04 7.44 30.97C7.38 30.85 7.41 30.78 7.4 30.65C7.32 30.63 7.24 30.59 7.2 30.6L7.14 30.85C7.1 30.89 7.07 30.9 7.01 30.9C6.91 30.9 6.86 30.86 6.84 30.78C6.81 30.68 6.84 30.43 6.9 30.29C6.94487 30.1895 6.96543 30.0799 6.96 29.97C6.96 29.76 6.96 29.7 6.9 29.7C5.8 30.05 5.33 29.31 5.74 28.92C5.27 27 6.6 25.92 7.94 25.87L7.93 25.86ZM6.56 28.04C6.39 28.04 6.2 28.26 6.16 28.51C6.12762 28.6481 6.12762 28.7919 6.16 28.93C6.25 29.2 6.73 29.35 7.29 29.29C7.73 28.99 7.39 28.69 7.29 28.52C7.16663 28.3894 7.03286 28.269 6.89 28.16C6.7914 28.0937 6.67813 28.0526 6.56 28.04ZM9.22 28.04C9.02 28.07 8.88 28.17 8.45 28.61C8.07 29.01 8.61 29.33 9 29.29C9.21177 29.28 9.41487 29.203 9.58 29.07C9.6304 29.0253 9.6654 28.9658 9.68 28.9C9.71 28.8 9.71 28.77 9.7 28.62C9.69412 28.5143 9.66328 28.4115 9.61 28.32C9.58217 28.2488 9.54519 28.1816 9.5 28.12C9.46088 28.0889 9.41601 28.0658 9.36797 28.0521C9.31992 28.0384 9.26964 28.0343 9.22 28.04ZM22.26 40.17L23.76 44H10.98L11.33 42.45C12.54 43 13.9 43.29 15.28 43.29C18.08 43.29 20.69 42.11 22.26 40.17Z" fill="#333333"/>
</svg>
